symbolic/64x64/apps/rimworld.svg

<svg xmlns="http://www.w3.org/2000/svg" width="64" height="64" version="1.1">
 <circle style="opacity:0.2" cx="32" cy="33" r="28"/>
 <circle style="fill:#b5b5b5" cx="32" cy="32" r="28"/>
 <path style="opacity:0.2" d="m 32,13 a 3,3 0 0 0 -3,3 3,3 0 0 0 1.654297,2.677734 l -3.845703,7.660157 -8.884766,2.003906 A 3,3 0 0 0 15,26 a 3,3 0 0 0 -3,3 3,3 0 0 0 3,3 3,3 0 0 0 2.34375,-1.130859 l 6.255859,4.988281 -1.173828,8.177734 A 3,3 0 0 0 22,44 a 3,3 0 0 0 -3,3 3,3 0 0 0 3,3 3,3 0 0 0 3,-3 3,3 0 0 0 -0.345703,-1.396484 L 32,41.738281 39.347656,45.603516 A 3,3 0 0 0 39,47 a 3,3 0 0 0 3,3 3,3 0 0 0 3,-3 3,3 0 0 0 -3,-3 3,3 0 0 0 -0.425781,0.0332 l -1.173828,-8.175781 6.253906,-4.986328 A 3,3 0 0 0 49,32 3,3 0 0 0 52,29 3,3 0 0 0 49,26 3,3 0 0 0 46.076172,28.341797 L 37.191406,26.337891 33.345703,18.679688 A 3,3 0 0 0 35,16 3,3 0 0 0 32,13 Z"/>
 <circle style="opacity:0.4" cx="32" cy="32" r="21"/>
 <path style="fill:#e5e5e5" transform="matrix(1.4,0,0,1.3493765,-0.63167625,0.14923196)" d="m 23.30834,11.005652 3.708204,7.661859 8.434653,1.972221 -6.142857,5.081202 1.142857,8.258292 -7.142857,-3.899037 -7.142857,3.899036 1.142857,-8.258291 -6.142857,-5.081203 8.434653,-1.97222 z"/>
 <circle style="fill:#e5e5e5" cx="32" cy="15" r="3"/>
 <circle style="fill:#e5e5e5" cx="15" cy="28" r="3"/>
 <circle style="fill:#e5e5e5" cx="49" cy="28" r="3"/>
 <circle style="fill:#e5e5e5" cx="22" cy="46" r="3"/>
 <circle style="fill:#e5e5e5" cx="42" cy="46" r="3"/>
 <path style="fill:#ffffff;opacity:0.2" d="M 32 4 A 28 28 0 0 0 4 32 A 28 28 0 0 0 4.0214844 32.585938 A 28 28 0 0 1 32 5 A 28 28 0 0 1 59.978516 32.414062 A 28 28 0 0 0 60 32 A 28 28 0 0 0 32 4 z"/>
 <path style="opacity:0.2" d="M 32 11 A 21 21 0 0 0 11 32 A 21 21 0 0 0 11.021484 32.585938 A 21 21 0 0 1 32 12 A 21 21 0 0 1 52.978516 32.414062 A 21 21 0 0 0 53 32 A 21 21 0 0 0 32 11 z"/>
 <path style="opacity:0.2;fill:#ffffff" d="M 52.978516 32.414062 A 21 21 0 0 1 32 53 A 21 21 0 0 1 11.021484 32.585938 A 21 21 0 0 0 11 33 A 21 21 0 0 0 32 54 A 21 21 0 0 0 53 33 A 21 21 0 0 0 52.978516 32.414062 z"/>
</svg>

<svg xmlns="http://www.w3.org/2000/svg" width="64" height="64"><circle style="opacity:.2" cx="32" cy="33" r="28"/><circle style="fill:#b5b5b5" cx="32" cy="32" r="28"/><path style="opacity:.2" d="M32 13a3 3 0 0 0-3 3 3 3 0 0 0 1.654 2.678l-3.845 7.66-8.885 2.004A3 3 0 0 0 15 26a3 3 0 0 0-3 3 3 3 0 0 0 3 3 3 3 0 0 0 2.344-1.13l6.256 4.987-1.174 8.178A3 3 0 0 0 22 44a3 3 0 0 0-3 3 3 3 0 0 0 3 3 3 3 0 0 0 3-3 3 3 0 0 0-.346-1.396L32 41.738l7.348 3.866A3 3 0 0 0 39 47a3 3 0 0 0 3 3 3 3 0 0 0 3-3 3 3 0 0 0-3-3 3 3 0 0 0-.426.033L40.4 35.857l6.254-4.986A3 3 0 0 0 49 32a3 3 0 0 0 3-3 3 3 0 0 0-3-3 3 3 0 0 0-2.924 2.342l-8.885-2.004-3.845-7.658A3 3 0 0 0 35 16a3 3 0 0 0-3-3z"/><circle style="opacity:.4" cx="32" cy="32" r="21"/><path style="fill:#e5e5e5" transform="matrix(1.4 0 0 1.34938 -.632 .15)" d="m23.308 11.006 3.709 7.662 8.434 1.972-6.143 5.08 1.143 8.26-7.143-3.9-7.143 3.9 1.143-8.26-6.143-5.08 8.435-1.972z"/><circle style="fill:#e5e5e5" cx="32" cy="15" r="3"/><circle style="fill:#e5e5e5" cx="15" cy="28" r="3"/><circle style="fill:#e5e5e5" cx="49" cy="28" r="3"/><circle style="fill:#e5e5e5" cx="22" cy="46" r="3"/><circle style="fill:#e5e5e5" cx="42" cy="46" r="3"/><path style="fill:#fff;opacity:.2" d="M32 4A28 28 0 0 0 4 32a28 28 0 0 0 .021.586A28 28 0 0 1 32 5a28 28 0 0 1 27.979 27.414A28 28 0 0 0 60 32 28 28 0 0 0 32 4z"/><path style="opacity:.2" d="M32 11a21 21 0 0 0-21 21 21 21 0 0 0 .021.586A21 21 0 0 1 32 12a21 21 0 0 1 20.979 20.414A21 21 0 0 0 53 32a21 21 0 0 0-21-21z"/><path style="opacity:.2;fill:#fff" d="M52.979 32.414A21 21 0 0 1 32 53a21 21 0 0 1-20.979-20.414A21 21 0 0 0 11 33a21 21 0 0 0 21 21 21 21 0 0 0 21-21 21 21 0 0 0-.021-.586z"/></svg>
